teeny/outline/scribble.svg

<svg width="15" height="15" viewBox="0 0 15 15" fill="none" xmlns="http://www.w3.org/2000/svg">
<path d="M1.5 4.99998C3 1.99999 7.3 0.499944 6.5 2.49994C5.5 4.99994 -0.5 9.49995 3 10.9999C4.34326 11.5756 6.05476 11.4496 7.65399 10.9493M7.65399 10.9493C10.2217 10.146 12.5 8.37782 12.5 6.99995C12.5 4.5 9 5.5 8 9C7.79358 9.72248 7.67238 10.381 7.65399 10.9493ZM7.65399 10.9493C7.58329 13.1339 9.03211 13.9839 13 12" stroke="black"/>
</svg>

<svg viewBox="0 0 15 15" xmlns="http://www.w3.org/2000/svg"><path fill="none" stroke="#000" d="M1.5 4.99c1.5-3 5.8-4.51 5-2.51 -1 2.5-7 7-3.5 8.49 1.34.57 3.05.44 4.65-.06m0 0c2.56-.81 4.84-2.58 4.84-3.95 0-2.5-3.5-1.5-4.5 2 -.21.72-.33 1.38-.35 1.94Zm0 0c-.08 2.18 1.37 3.03 5.34 1.05"/></svg>
